svgs/duotone/stopwatch.svg

<svg xmlns="http://www.w3.org/2000/svg" viewBox="0 0 448 512"><!--! Font Awesome Pro 6.5.1 by @fontawesome - https://fontawesome.com License - https://fontawesome.com/license (Commercial License) Copyright 2023 Fonticons, Inc. --><defs><style>.fa-secondary{opacity:.4}</style></defs><path class="fa-secondary" d="M224 512a208 208 0 1 0 0-416 208 208 0 1 0 0 416zm24-320V320c0 13.3-10.7 24-24 24s-24-10.7-24-24V192c0-13.3 10.7-24 24-24s24 10.7 24 24z"/><path class="fa-primary" d="M144 32c0-17.7 14.3-32 32-32h48 48c17.7 0 32 14.3 32 32s-14.3 32-32 32H256V98.4c-10.4-1.6-21.1-2.4-32-2.4s-21.6 .8-32 2.4V64H176c-17.7 0-32-14.3-32-32zM355.7 143l21.6-21.6c12.5-12.5 32.8-12.5 45.3 0s12.5 32.8 0 45.3l-24.1 24.1c-11.7-18-26.2-34.1-42.8-47.7zM248 192V320c0 13.3-10.7 24-24 24s-24-10.7-24-24V192c0-13.3 10.7-24 24-24s24 10.7 24 24z"/></svg>

<svg xmlns="http://www.w3.org/2000/svg" viewBox="0 0 448 512"><!--! Font Awesome Pro 6.1.1 by @fontawesome - https://fontawesome.com License - https://fontawesome.com/license (Commercial License) Copyright 2022 Fonticons, Inc. --><defs><style>.fa-secondary{opacity:.4}</style></defs><path class="fa-primary" d="M144 32C144 14.33 158.3 0 176 0H272C289.7 0 304 14.33 304 32C304 49.67 289.7 64 272 64H256V98.45C245.6 96.84 234.9 96 224 96C213.1 96 202.4 96.84 192 98.45V64H176C158.3 64 144 49.67 144 32zM377.4 121.4C389.9 108.9 410.1 108.9 422.6 121.4C435.1 133.9 435.1 154.1 422.6 166.6L398.5 190.8C386.8 172.7 372.3 156.6 355.7 143L377.4 121.4zM248 320C248 333.3 237.3 344 224 344C210.7 344 200 333.3 200 320V192C200 178.7 210.7 168 224 168C237.3 168 248 178.7 248 192V320z"/><path class="fa-secondary" d="M16 304C16 189.1 109.1 96 224 96C338.9 96 432 189.1 432 304C432 418.9 338.9 512 224 512C109.1 512 16 418.9 16 304zM248 192C248 178.7 237.3 168 224 168C210.7 168 200 178.7 200 192V320C200 333.3 210.7 344 224 344C237.3 344 248 333.3 248 320V192z"/></svg>
